X:1
T:Progress, 11.11.11.11
T:Progress, 11.11.11.11
T:Sabbath School Melodist, 1850
T:Public Domain Courtesy of the Cyber Hymnal™
C:Sabbath School Melodist, 1850
Z:Public Domain
Z:Courtesy of the Cyber Hymnal™
%%score ( 1 2 ) 3
L:1/8
Q:1/4=95
M:2/4
K:Eb
V:1 treble 
V:2 treble 
V:3 bass 
V:1
 [GB] | [GB]2 [EG][Ge] | [GB]2 [EG][GB] | ([FA][EG]) [FA][Ac] | [GB]3 [GB] | [GB]2 [EG][Ge] | %6
 [GB]2 [EG][GB] | ([FA][EG]) [FA][DF] | [EG]3 [GB] | ([FA]>[EG]) [DF][Ac] | [GB]2 [EG][GB] | %11
 [FA]>[EG] [DF][Ac] | [GB]3 [GB] | [GB]2 [EG][Ge] | [GB]2 [EG][GB] | ([FA][EG]) [FA][DF] | E3 |] %17
V:2
 x | x4 | x4 | x4 | x4 | x4 | x4 | x4 | x4 | x4 | x4 | x4 | x4 | x4 | x4 | x4 | E3 |] %17
V:3
 [E,B,] | [E,B,]2 [E,B,][E,B,] | [E,B,]2 [E,B,][E,B,] | [B,,B,]2 [B,,A,][B,,A,] | [E,B,]3 [E,B,] | %5
 [E,B,]2 [E,B,][E,B,] | [E,B,]2 [E,B,][E,B,] | [B,,B,]2 [B,,B,][B,,B,] | [E,B,]3 [E,B,] | %9
 [B,,B,]2 [B,,B,][B,,B,] | [E,B,]2 [E,B,][E,B,] | [B,,B,]2 [B,,B,][B,,B,] | [E,B,]3 [E,B,] | %13
 [E,B,]2 [E,B,][E,B,] | [E,B,]2 [E,B,][E,B,] | [B,,B,]2 [B,,B,][B,,B,] | [E,G,]3 |] %17

